X: 10
T:En sjöman seglar jorden rund
M:6/8
L:1/8
C:anon.
O:Sweden
A:\AAboland
Z:Transcribed by Frank Nordberg - http://www.musicaviva.com
K:Ab
E|"Ab"A2A"Db"F2F|"Ab"E2EC2z|"Ab"A2"Eb"AB2B|"Ab"c3-c2e|
w:En sjö- man seg- lar jor- den rund, ri- o ri o rej. Hans
"Bbm"d2"Ab"c"Eb"B2c|"Bbm7"A2FD2z|"Ab"E3"Cm"G2"Eb"G|"Ab"A3-A2|]
w:hem- komst blir en trev- lig stund. Hol- land så god.
w:En sjömans brud skal blåklädd gå,
W:rio rio rej,
W:att hon är liksom böljan blå.
W:Holland så god.
w:Och skeppet svajar, seglen slå,
W:rio rio rej,
W:och alla man på däcket gå
W:Holland så god.
W:
W: From "Falaleiro" http://home.t-online.de/home/pheld/homepage.htm

